cartflows/admin-core/assets/images/plugins/suretriggers/trusted-brands/Google.svg

<svg width="77" height="24" viewBox="0 0 77 24" fill="none" xmlns="http://www.w3.org/2000/svg">
<g clip-path="url(#clip0_4393_128311)">
<path d="M10.0068 8.56364V11.1273H16.1455C15.9825 12.5455 15.4936 13.6364 14.733 14.3455C13.8638 15.2182 12.4514 16.2 10.0068 16.2C6.2584 16.2 3.32487 13.1455 3.32487 9.38182C3.32487 5.61818 6.20407 2.56364 10.0068 2.56364C12.0168 2.56364 13.5379 3.38182 14.6244 4.41818L16.4171 2.61818C14.896 1.14545 12.8317 0 10.0068 0C4.84596 0 0.5 4.2 0.5 9.38182C0.5 14.5636 4.84596 18.7636 10.0068 18.7636C12.7773 18.7636 14.896 17.8364 16.5257 16.1455C18.2098 14.4545 18.753 12.0545 18.753 10.1455C18.753 9.54545 18.6987 9 18.6444 8.56364H10.0068Z" fill="#4B5563"/>
<path d="M26.3585 6.4375C23.0447 6.4375 20.2742 9.00114 20.2742 12.492C20.2742 15.983 22.9904 18.5466 26.3585 18.5466C29.7266 18.5466 32.4429 16.0375 32.4429 12.5466C32.4429 9.00114 29.7266 6.4375 26.3585 6.4375ZM26.3585 16.2011C24.5115 16.2011 22.9361 14.6739 22.9361 12.5466C22.9361 10.3648 24.5115 8.89204 26.3585 8.89204C28.2055 8.89204 29.781 10.3648 29.781 12.5466C29.781 14.6739 28.2055 16.2011 26.3585 16.2011Z" fill="#4B5563"/>
<path d="M56.0739 7.80114H55.9652C55.3677 7.09205 54.2269 6.4375 52.7601 6.4375C49.7179 6.4375 47.1104 9.05568 47.1104 12.492C47.1104 15.8739 49.7179 18.5466 52.7601 18.5466C54.2269 18.5466 55.3677 17.892 55.9652 17.183H56.0739V18.0557C56.0739 20.3466 54.8244 21.6011 52.8687 21.6011C51.239 21.6011 50.2612 20.4557 49.8266 19.4193L47.5449 20.4011C48.1968 21.983 49.9895 24.0011 52.9231 24.0011C56.0196 24.0011 58.6815 22.1466 58.6815 17.6739V6.76477H56.1825V7.80114H56.0739ZM53.0317 16.2011C51.1847 16.2011 49.8266 14.6193 49.8266 12.5466C49.8266 10.4193 51.239 8.89205 53.0317 8.89205C54.8244 8.89205 56.2369 10.4739 56.2369 12.6011C56.2912 14.6739 54.8788 16.2011 53.0317 16.2011Z" fill="#4B5563"/>
<path d="M39.8854 6.4375C36.5716 6.4375 33.801 9.00114 33.801 12.492C33.801 15.983 36.5173 18.5466 39.8854 18.5466C43.2535 18.5466 45.9697 16.0375 45.9697 12.5466C45.9697 9.00114 43.2535 6.4375 39.8854 6.4375ZM39.8854 16.2011C38.0383 16.2011 36.4629 14.6739 36.4629 12.5466C36.4629 10.3648 38.0383 8.89204 39.8854 8.89204C41.7324 8.89204 43.3078 10.3648 43.3078 12.5466C43.3078 14.6739 41.7324 16.2011 39.8854 16.2011Z" fill="#4B5563"/>
<path d="M60.6917 0.273438H63.2992V18.6007H60.6917V0.273438Z" fill="#4B5563"/>
<path d="M71.3392 16.2011C69.9811 16.2011 69.0576 15.6011 68.4057 14.3466L76.5 11.0193L76.2284 10.3102C75.7395 8.94659 74.1641 6.4375 71.0676 6.4375C67.9711 6.4375 65.3635 8.89205 65.3635 12.492C65.3635 15.8739 67.9168 18.5466 71.3392 18.5466C74.1098 18.5466 75.6852 16.8557 76.3914 15.8739L74.3271 14.5102C73.6208 15.5466 72.6973 16.2011 71.3392 16.2011ZM71.1763 8.72841C72.2627 8.72841 73.1863 9.27386 73.4579 10.0375L68.0254 12.3284C67.9711 9.81932 69.8181 8.72841 71.1763 8.72841Z" fill="#4B5563"/>
</g>
<defs>
<clipPath id="clip0_4393_128311">
<rect width="76" height="24" fill="white" transform="translate(0.5)"/>
</clipPath>
</defs>
</svg>

<svg width="77" height="24" fill="none" xmlns="http://www.w3.org/2000/svg"><g clip-path="url(#a)" fill="#4B5563"><path d="M10.007 8.564v2.563h6.138c-.162 1.418-.651 2.51-1.412 3.218-.87.873-2.282 1.855-4.726 1.855-3.749 0-6.682-3.054-6.682-6.818s2.88-6.818 6.682-6.818c2.01 0 3.53.818 4.617 1.854l1.793-1.8C14.896 1.145 12.832 0 10.007 0 4.846 0 .5 4.2.5 9.382c0 5.182 4.346 9.382 9.507 9.382 2.77 0 4.889-.928 6.519-2.619 1.684-1.69 2.227-4.09 2.227-6 0-.6-.054-1.145-.109-1.581h-8.637ZM26.358 6.438c-3.313 0-6.084 2.563-6.084 6.054s2.716 6.055 6.084 6.055c3.369 0 6.085-2.51 6.085-6 0-3.546-2.716-6.11-6.084-6.11Zm0 9.763c-1.846 0-3.422-1.527-3.422-3.654 0-2.182 1.576-3.655 3.422-3.655 1.848 0 3.423 1.473 3.423 3.655 0 2.127-1.575 3.654-3.422 3.654ZM56.074 7.801h-.109c-.597-.709-1.738-1.364-3.205-1.364-3.042 0-5.65 2.619-5.65 6.055 0 3.382 2.608 6.055 5.65 6.055 1.467 0 2.608-.655 3.205-1.364h.109v.873c0 2.29-1.25 3.545-3.205 3.545-1.63 0-2.608-1.145-3.042-2.182l-2.282.982c.652 1.582 2.444 3.6 5.378 3.6 3.097 0 5.758-1.854 5.758-6.327V6.764h-2.498v1.037h-.11Zm-3.042 8.4c-1.847 0-3.205-1.582-3.205-3.654 0-2.128 1.412-3.655 3.205-3.655 1.792 0 3.205 1.582 3.205 3.71.054 2.072-1.358 3.6-3.205 3.6ZM39.885 6.438c-3.313 0-6.084 2.563-6.084 6.054s2.716 6.055 6.084 6.055c3.369 0 6.085-2.51 6.085-6 0-3.546-2.716-6.11-6.085-6.11Zm0 9.763c-1.847 0-3.422-1.527-3.422-3.654 0-2.182 1.575-3.655 3.422-3.655 1.847 0 3.423 1.473 3.423 3.655 0 2.127-1.576 3.654-3.423 3.654ZM60.692.273h2.607v18.328h-2.607V.273ZM71.34 16.201c-1.359 0-2.282-.6-2.934-1.854l8.094-3.328-.272-.709c-.488-1.363-2.064-3.873-5.16-3.873-3.097 0-5.704 2.455-5.704 6.055 0 3.382 2.553 6.055 5.975 6.055 2.77 0 4.346-1.691 5.052-2.673l-2.064-1.364c-.706 1.037-1.63 1.691-2.988 1.691Zm-.164-7.473c1.087 0 2.01.546 2.282 1.31l-5.433 2.29c-.054-2.509 1.793-3.6 3.151-3.6Z"/></g><defs><clipPath id="a"><path fill="#fff" transform="translate(.5)" d="M0 0h76v24H0z"/></clipPath></defs></svg>
